app/dist/common/images/esports-entertainment-group.svg

<svg height="18" width="18" xmlns="http://www.w3.org/2000/svg"><path d="m0 0h18v18h-18z" fill="#404040"/><path d="m9 7.07-4.5-2.07v2.07l4.5 1.98 4.5-1.98v-2.07z" fill="#fff"/><path d="m9 9.54-4.5-2.07v2.07l4.5 1.98 4.5-1.98v-2.07z" fill="#dc1d25"/><path d="m9 12.02-4.5-2.07v2.07l4.5 1.98 4.5-1.98v-2.07z" fill="#fff"/></svg>

<!-- by TradingView --><svg xmlns="http://www.w3.org/2000/svg" width="18" height="18"><path fill="#404040" d="M0 0h18v18H0z"/><path d="M9 7.07L4.5 5v2.07L9 9.05l4.5-1.98V5L9 7.07z" fill="#fff"/><path d="M9 9.54L4.5 7.47v2.07L9 11.52l4.5-1.98V7.47L9 9.54z" fill="#DC1D25"/><path d="M9 12.02L4.5 9.95v2.07L9 14l4.5-1.98V9.95L9 12.02z" fill="#fff"/></svg>
